X: 43358
T: Wren's Nest, The
R: jig
M: 6/8
K: Edorian
|:GAB d2d|cAA A2c|BGD E3|AFD FED|
GAB d2d|cAA A2c|BGE AFD|GEE E3:|
|:E2e d2B|cBA B2A|G3 dcB|cBA BGD|
E2e d2B|cBA B2A|GAB dAB|GEE E3:|
|:B,DE GED|B,EE E3|B,DE GAB|AFD FED|
B,DE GED|B,EE E2F|GAB dAB|GEE E3:|

